X:1
T:Title
%%score { ( 1 3 ) | ( 2 4 ) }
L:1/8
M:4/2
K:F
V:1 treble nm="Grand Piano"
V:3 treble 
V:2 bass 
V:4 bass 
V:1
 z8 z4[Q:1/4=216] C2 F2 | A4 G2 F2 [DG]4 E4 | F12 F2 F2 | z8 z4 G4 |[M:6/4] c12 |[M:2/4] C2 F2 | %6
[M:8/4] A4 G2 F2 [DG]4 E4 | F12 A4 | G4 [Ec]2 [Ec]2 [Dc]4 [D=B]4 | [Ec]12 z4 |[M:2/4] [Ec]4 | %11
[M:8/4] G4 G2 G2 G2 F2 G4 | A8 z4 [Ec]4 | G4 G4 G2 A2 G4 |[M:6/4] .c12 |[M:2/4] [FA]4 | %16
[M:8/4] [FB]4 [FB]4 [Fc]4 [Fc]4 |[M:10/4] [Fd]12 z4 [DB]4[Q:1/4=213][Q:1/4=210][Q:1/4=206] | %18
[M:9/4] [CA]4 [Fc]2- [Fc]4 z2 z2 [FA]4[Q:1/4=203][Q:1/4=200][Q:1/4=197][Q:1/4=194][Q:1/4=191][Q:1/4=187][Q:1/4=184][Q:1/4=181][Q:1/4=178][Q:1/4=175][Q:1/4=172][Q:1/4=168][Q:1/4=165] | %19
[M:8/4] [EG]12 F4 |[M:6/4] F12 |] %21
V:2
 z8 z4 [F,A,]2 [F,A,C]2 | [F,CF]4 [F,B,E]2 [F,A,]2 [B,,B,]4 [C,B,C]4 | [F,A,C]12 [F,A,]4 | %3
 [F,B,F]4 [F,DF]4 [F,CE]4 .[F,B,D]4 |[M:6/4] [F,A,F]12 |[M:2/4] [F,A,]2 [F,A,C]2 | %6
[M:8/4] [F,CF]4 [F,B,E]2 [F,A,]2 [B,,B,]4 [C,B,C]4 | [F,A,C]12 [F,C]4 | %8
 [E,G,C]4 [C,G,]4 [G,,G,]4 [G,,G,]4 | [C,G,]12 z4 |[M:2/4] [C,B,]4 | %11
[M:8/4] [B,CE]4 [B,CE]2 [B,CE]2 [B,E]2 A,2 [G,CE]4 | [F,CF]8 z4 [C,B,]4 | %13
 [B,CE]4 [B,CE]4 [B,CE]4 [B,CE]4 |[M:6/4] .[A,CF]12 |[M:2/4] [_E,C]4 | %16
[M:8/4] [D,B,]4 [D,B,]4 [C,A,]4 [C,A,]4 |[M:10/4] [B,,B,]12 z4 [B,,F,]4 | %18
[M:9/4] [C,F,]4 [C,A,]2- [C,A,]4 z2 z2 [C,C]4 |[M:8/4] [C,B,]12 [F,A,]4 |[M:6/4] [F,A,]12 |] %21
V:3
 x16 | x16 | x16 | G4 G4 G4 z2 E2 |[M:6/4] x12 |[M:2/4] x4 |[M:8/4] x16 | x16 | x16 | x16 | %10
[M:2/4] x4 |[M:8/4] x16 | x16 | x16 |[M:6/4] x12 |[M:2/4] x4 |[M:8/4] x16 |[M:10/4] x20 | %18
[M:9/4] x18 |[M:8/4] x16 |[M:6/4] x12 |] %21
V:4
 x16 | x16 | x16 | x16 |[M:6/4] x12 |[M:2/4] x4 |[M:8/4] x16 | x16 | x16 | x16 |[M:2/4] x4 | %11
[M:8/4] z8 C4 z4 | x16 | x16 |[M:6/4] x12 |[M:2/4] x4 |[M:8/4] x16 |[M:10/4] x20 |[M:9/4] x18 | %19
[M:8/4] x16 |[M:6/4] x12 |] %21

